X:62
T:Milliner's Choice, The
M:C|
L:1/8
B:Thompson's Compleat Collection of 200 Favourite Country Dances, vol. 1 (London, 1757)
Z:Transcribed and edited by Fynnian Titford-Mock, 2007
Z:abc's:AK/Fiddler's Companion
K:G
c|(B/c/d)BG B(dd)g|(B/c/d)BG F(AA)c|(B/c/d)BG B(dd)g|fgdB G/G/GG:|
|:g|fgdB fgdB|fgdB ddde|fefg afge|dgdB G/G/GG:|

